images/svg/icons-shop/zoom.svg

<svg width="19" height="19" viewBox="0 0 19 19" fill="none" xmlns="http://www.w3.org/2000/svg">
<path d="M18.7332 16.6527C18.7332 16.6527 18.7332 16.6527 18.7331 16.6527L13.837 11.7986C13.2549 11.2216 13.1892 10.3188 13.4998 9.56034C13.8355 8.74088 14.0112 7.85664 14.0112 6.9454C14.0112 5.0902 13.2826 3.34617 11.9593 2.03414C10.6362 0.72235 8.87699 0 7.00571 0C5.1344 0 3.37523 0.72235 2.05181 2.03428C0.728488 3.34621 0 5.0903 0 6.9452C0 8.8001 0.728622 10.5444 2.05194 11.8565C3.37526 13.1684 5.13423 13.8906 7.00585 13.8906C7.86444 13.8906 8.6993 13.7384 9.47931 13.447C10.3733 13.113 11.4235 13.1808 12.1013 13.8526L16.8295 18.5399C17.0284 18.7373 17.3943 18.6945 17.6464 18.4443L18.6367 17.4624C18.889 17.2126 18.9322 16.8499 18.7332 16.6526C18.7332 16.6526 18.7332 16.6526 18.7332 16.6527ZM7.00595 12.0096C4.18935 12.0096 1.89815 9.73808 1.89815 6.94573C1.89815 4.15352 4.18962 1.88191 7.00595 1.88191C9.82241 1.88191 12.1137 4.15365 12.1137 6.94573C12.1137 9.73808 9.82254 12.0096 7.00595 12.0096Z" fill="#D4DCE2"/>
<path d="M10.5044 6.26271C10.5044 6.26271 10.5044 6.26271 10.5044 6.26271H9.09964C8.32382 6.26271 7.69489 5.63379 7.69489 4.85797V3.4775C7.69489 3.29648 7.54691 3.1499 7.36446 3.1499H6.64782C6.46524 3.1499 6.31739 3.29661 6.31739 3.4775V4.26275C6.31739 5.36736 5.4219 6.2628 4.3173 6.26275L3.50817 6.26272C3.32559 6.26272 3.17773 6.40943 3.17773 6.59031V7.30079C3.17773 7.4818 3.32572 7.62838 3.50817 7.62838H4.31739C5.42196 7.62838 6.31739 8.52381 6.31739 9.62838V10.4137C6.31739 10.5947 6.46537 10.7415 6.64782 10.7415H7.36446C7.54704 10.7415 7.69489 10.5947 7.69489 10.4137L7.69486 9.62834C7.6948 8.52374 8.59025 7.62825 9.69486 7.62825H10.5043C10.6868 7.62825 10.8347 7.48167 10.8347 7.30065V6.59018C10.8348 6.40955 10.687 6.26271 10.5044 6.26271L10.5044 6.26271Z" fill="#D4DCE2"/>
</svg>

<svg width="19" height="19" fill="none" xmlns="http://www.w3.org/2000/svg"><path d="m18.733 16.653-4.896-4.854c-.582-.577-.648-1.48-.337-2.239.335-.82.511-1.703.511-2.615a6.87 6.87 0 0 0-2.052-4.91A6.99 6.99 0 0 0 7.006 0a6.99 6.99 0 0 0-4.954 2.034A6.87 6.87 0 0 0 0 6.945c0 1.855.729 3.6 2.052 4.912a6.99 6.99 0 0 0 4.954 2.034c.858 0 1.693-.153 2.473-.444.894-.334 1.945-.266 2.622.406l4.728 4.687c.2.197.565.155.817-.096l.99-.982c.253-.25.296-.612.097-.81ZM7.006 12.01c-2.817 0-5.108-2.272-5.108-5.064 0-2.792 2.292-5.064 5.108-5.064s5.108 2.272 5.108 5.064c0 2.792-2.291 5.064-5.108 5.064Z" fill="#D4DCE2"/><path d="M10.504 6.263H9.1a1.405 1.405 0 0 1-1.405-1.405v-1.38a.329.329 0 0 0-.33-.328h-.717a.329.329 0 0 0-.33.328v.785a2 2 0 0 1-2 2h-.81a.329.329 0 0 0-.33.327v.71c0 .182.148.328.33.328h.81a2 2 0 0 1 2 2v.786a.33.33 0 0 0 .33.328h.716a.33.33 0 0 0 .33-.328v-.786a2 2 0 0 1 2-2h.81c.183 0 .33-.146.33-.327v-.71a.329.329 0 0 0-.33-.328Z" fill="#D4DCE2"/></svg>
